src/images/labyrinth.svg

<svg width="1170" height="480" viewBox="0 0 1170 480" fill="none" xmlns="http://www.w3.org/2000/svg"><path d="M1170 0v480H120V360h90V240h30v60h60v30h-60v30h30v60h-30v-30h-90v60h30v-30h30v30h120v-30h30v30h90v-30h30v30h90v-30h30v30h90v-30h30v30h90v-30h30v30h90v-60h90V240h-60v-30h90v30h30v-60h-60v-30h90v120h-60v150h-90v30h120v-90h30v90h30V330h-60v-30h60V120h-60V90h60V30h-30v30h-30V30h-30v30h-30V30H840v30h30v30h-60V30H660v30h-30V30h-90v60h-30V30h-90v30h60v30h-30v30h120V60h30v90H360v30h-30v-30h-30v-30h30V60h30v60h60V90h-30V30h-90v60h-30V30h-60v30h30v60h30v30h-30v30h60v30h60v150h510v-90h30v-30h-60v90h-30V150H630V90h30v30h90V90h-60V60h90v60h60v90h60v-30h-30v-60h30v30h60V90h-60V60h90v30h60v30h-60v60h-60v90h60v30h-30v30h30v30h-60v-60h-30v120h-30v-30h-90v30h-30v-30h-90v30h-30v-30h-90v30h-30v-30h-90v30h-30v-30h-90v-30h30V240h-30v30h-30v-60h-60V90h-30v30h-30V90h-30V60h60V30H90v90H60V30H30v120h90v30H30v270h30V300h120v30H90v150H0V0h1170z" fill="#6120FE"/><path d="M90 210H60v60h120V150h-30v90H90v-30z" fill="#6120FE"/></svg>

<svg width="1170" height="480" viewBox="0 0 1170 480" fill="none" xmlns="http://www.w3.org/2000/svg">
<path d="M1170 0V480H120V360H210V240H240V300H300V330H240V360H270V420H240V390H150V450H180V420H210V450H330V420H360V450H450V420H480V450H570V420H600V450H690V420H720V450H810V420H840V450H930V390H1020V240H960V210H1050V240H1080V180H1020V150H1110V270H1050V420H960V450H1080V360H1110V450H1140V330H1080V300H1140V120H1080V90H1140V30H1110V60H1080V30H1050V60H1020V30H840V60H870V90H810V30H660V60H630V30H540V90H510V30H420V60H480V90H450V120H570V60H600V150H360V180H330V150H300V120H330V60H360V120H420V90H390V30H300V90H270V30H210V60H240V120H270V150H240V180H300V210H360V360H870V270H900V240H840V330H810V150H630V90H660V120H750V90H690V60H780V120H840V210H900V180H870V120H900V150H960V90H900V60H990V90H1050V120H990V180H930V270H990V300H960V330H990V360H930V300H900V420H870V390H780V420H750V390H660V420H630V390H540V420H510V390H420V420H390V390H300V360H330V240H300V270H270V210H210V90H180V120H150V90H120V60H180V30H90V120H60V30H30V150H120V180H30V450H60V300H180V330H90V480H0V0H1170Z" fill="#6120FE"/>
<path d="M90 210H60V270H180V150H150V240H90V210Z" fill="#6120FE"/>
</svg>
